app/dist/common/images/five-point-llc.svg

<svg height="18" viewBox="0 0 18 18" width="18" xmlns="http://www.w3.org/2000/svg"><path d="m0 0h18v18h-18z" fill="#f0f3fa"/><path d="m9 14a5 5 0 1 0 0-10 5 5 0 0 0 0 10zm-3-7h2.1v.31h-.67l1.57 3.6 1.57-3.6h-.67v-.31h2.1v.31h-.43l-1.86 3.9c-.04.16.07.48.64.48v.31h-2.7v-.31c.24 0 .75-.1.64-.47a74.34 74.34 0 0 0 -1.86-3.9h-.43z" fill="#750a14"/></svg>

<!-- by TradingView --><svg width="18" height="18" viewBox="0 0 18 18" xmlns="http://www.w3.org/2000/svg"><path fill="#F0F3FA" d="M0 0h18v18H0z"/><path d="M9 14A5 5 0 1 0 9 4a5 5 0 0 0 0 10ZM6 7h2.1v.31h-.67L9 10.91l1.57-3.6H9.9V7H12v.31h-.43l-1.86 3.9c-.04.16.07.48.64.48V12h-2.7v-.31c.24 0 .75-.1.64-.47a74.34 74.34 0 0 0-1.86-3.9H6V7Z" fill="#750A14"/></svg>
